X: 98
T:Irish Washerwoman
M:6/8
L:1/8
S:AABB
R:Jig
K:G
d/2c/2|"G"BGG DGG|BGB dcB|"Am"cAA EAA|cBc edc|!
"G"BGG DGG|BGB dcB|"Am"cBc "D"Adc|"G"BGG G2:||!
"G"d|gdd Bdd|gfg bag|"D"fdd Add|fdf agf|!
"C"egg "G"dgg|"C"cgg "G"Bgg|"Am"cBc "D"Adc|"G"BGG G2:||
% <A name="D1X099">
